X: 10045
T: Dick Harmon's
R: reel
M: 4/4
K: Adorian
EA (3AAA EA (3AAA|EAGB cABG|EG (3GGG FGGA|(3Bcd ge dBAG|
EAcA eA (3AAA|EAGB cdef|(3ggg eg dGBd|cAB^G A2-:|
ea-ab agef|gedc BG (3GGG|DEGA BGBd|gedc BG (3GGG|
eaa^g a=gef|ga (3bag a2 ef|g2 eg dGBd|cAB^G A2-:|

